X: 1
T: The Girl From Ipanema (Garota De Ipanema)
C: Antonio Carlos Jobim
M: 4/4
L: 1/8
Z: Ulf <ulf.bro@t-online.de> 2002-5-1
K: F maj
"Fmaj7" G2 GE E2 ED | G2 GE EE DG- | "G7" G2 GE EE DG- | G2 GE EE DF- |
w: Ol-ha que coi-sa mais lin-da, mais chei-a de gra- - \,ca \'e e-la me-n~i- - na que vem e que pas-
w: Mo-\,ca do cor-po dou-ra-do do sol de'I-pa-ne- - ma o seu ba-lan-\,ca- - do \'e mais que'um po-e-
"Gm7" F2 FD DD CE- | "Gb7" E2 EC CC B,C- |[1 "Fmaj7" C8 | "Gb7" z8 :|
w: - sa num do-ce ba-lan- - \,co ca-min-ho do mar -
w: - ma \'e'a coi-sa mais lin- - da que'eu j\'a vi pas-sar
[2 "Fmaj7" C8 | z8 | "Gbmaj7" F8- | (3:2:3F2_G2_F2 (3:2:3_E2F2E2 | "B7" _D3 _E-E4- | _E6 z ^G- |
w: Ah, - por-que'es-tou t\~ao so-zin-ho - - Ah,
"F#m7" ^G8- | (3:2:3^G2A2G2 (3:2:3^F2G2F2 | "D7" E3 ^F- F4- |
w: - - por-que tu-do'\'e t\~ao tri-ste
^F6 z A- | "Gm7" A8- | (3:2:3A2B2A2 (3:2:3G2A2G2 |"Eb7" F3 G- G4- |
w: - Ah, - - a be-le-za que'ex-i-ste
G4 (3:2:3z2A2B2 | "Am7" (3:2:3 c2C2D2 (3:2:3E2F2G2 |
w: - A be-le-za que n\~ao \'e s\'o
"D7" ^G3 A3 z2 | "Gm7" (3:2:3B2B,2C2 (3:2:3D2E2F2 | "C7" ^F3 G3 z2 |
w: min-ha, que tam-b\'em pas-sa so-zin-ha
"Fmaj7" G3 E EE DG- |G2 GE- EE DG- | "G7" G2 GE EE DG- | G2 GE EE DA- |
w: Ah, se e-la sou-bes- - se que quan-do'e-la pas- - sa o mundo sor-rin- - do se en-che de gra-
"Gm7" A2 AF FF Dc- |"Gb7" c2 cE (3:2:3E2E2D2 | "Fmaj7" E8- | E2 z6  ||
w: - \,ca e fi-ca mais lin- - do por cau-sa do'a mor
